X:12
T:Galoppan
T:(SmM VI-12)
R:Polka
R:Galopp
S:Kungs Neta Johansson
S:Nils Bernhard Ljunggren
B:Småländsk Musiktradition
B:August Ysenius samling
N:Ca 1920
O:Voxtorp, Halland och Markaryd, Småland
M:2/4
L:1/8
K:D
A|:Af/f/ ff|fe dB|BA/A/ AA|AD FA|Ac/c/ cc|cA Bc|
ed/d/ dd|1d3 A:|2d4&DE FG||A2 Bc|d2 cB|B2 AA|A2 BA|
GG/G/ GG|GB AG|FD/D/ DD|DE FG|AA/A/ AA|A2 Bc|d2cB|
A3 c|ee/e/ ee|eA Bc|ed/d/ dd|d4||

